packages/crayons-core/src/components/icon/icon-assets/icons/announcement.svg

<?xml version="1.0" encoding="UTF-8"?>
<svg width="17px" height="16px" viewBox="0 0 17 16" version="1.1" xmlns="http://www.w3.org/2000/svg" xmlns:xlink="http://www.w3.org/1999/xlink">
    <!-- Generator: Sketch 52.6 (67491) - http://www.bohemiancoding.com/sketch -->
    <title>icon/announcement</title>
    <desc>Created with Sketch.</desc>
    <g id="Icons-✅" stroke="none" stroke-width="1" fill="none" fill-rule="evenodd">
        <g id="Icons" transform="translate(-408.000000, -2784.000000)" fill="currentColor">
            <g id="icon/announcement" transform="translate(408.000000, 2784.000000)">
                <g id="announcement">
                    <path d="M13,3.85 L12.74,3.85 L12.74,2.2 C12.7526282,1.57400952 12.4201396,0.991748019 11.8745981,0.68448904 C11.3290567,0.37723006 10.6587796,0.394715437 10.13,0.73 L7.82,2.09 C7.31195945,2.38272568 6.73633509,2.53783404 6.15,2.54 L2.7,2.54 C1.98217949,2.53999508 1.29390411,2.82583085 0.787267441,3.33434394 C0.280630777,3.84285704 -0.00265859448,4.53218442 -7.77156117e-16,5.25 L-7.77156117e-16,8.58 C0.0109499834,10.0705075 1.21946222,11.2745603 2.71,11.28 L3.08,11.28 L3.08,13.44 C3.08547206,14.5754323 4.00456774,15.4945279 5.14,15.5 C5.68634597,15.5 6.21031503,15.2829649 6.59663997,14.89664 C6.98296491,14.510315 7.2,13.986346 7.2,13.44 L7.2,11.44 C7.42179472,11.5126569 7.63610934,11.6064195 7.84,11.72 L10.15,13.07 C10.4107689,13.2226054 10.7078666,13.3020617 11.01,13.3 C11.3089372,13.3017492 11.6027336,13.2222514 11.86,13.07 C12.3883394,12.7697888 12.7133765,12.2076659 12.71,11.6 L12.71,10 L13,10 C14.6844685,9.99999997 16.05,8.63446847 16.05,6.95 C16.05,5.26553153 14.6844685,3.90000003 13,3.9 L13,3.85 Z M5.15,14.1 C4.9777475,14.0991215 4.81266401,14.0309348 4.69,13.91 C4.56199147,13.7871886 4.48973862,13.6173944 4.49,13.44 L4.48999929,11.28 L5.79,11.28 L5.79,13.45 C5.78481263,13.8029512 5.50282836,14.0893415 5.15,14.1 Z M11.15,11.86 C11.0577679,11.915742 10.9422321,11.915742 10.85,11.86 L8.53,10.51 C7.94737835,10.1735802 7.29956928,9.96559936 6.63,9.9 L6.49,9.9 L6.42,9.9 L6.17,9.9 L2.71,9.9 C1.98489239,9.8945066 1.39997919,9.30512842 1.4,8.58 L1.4,5.25 C1.39503249,4.90417712 1.53243586,4.57151633 1.78,4.33 C2.0309432,4.10263742 2.36175529,3.98397656 2.7,4 L6.15,4 C6.98453034,4.00379331 7.80416776,3.77899823 8.52,3.35 L10.84,2 C10.9322321,1.94425796 11.0477679,1.94425796 11.14,2 C11.2328799,2.05362419 11.2900688,2.1527516 11.29,2.26 L11.29,11.66 C11.2763835,11.7445722 11.2248031,11.8182585 11.15,11.86 Z M13,8.55 L13,5.25 C13.9112698,5.25 14.65,5.98873016 14.65,6.9 C14.65,7.81126984 13.9112698,8.55 13,8.55 Z" id="Shape"></path>
                </g>
            </g>
        </g>
    </g>
</svg>

<svg viewBox="0 0 17 16"><path d="M13 3.85h-.26V2.2A1.7 1.7 0 0 0 10.13.73L7.82 2.09a3.37 3.37 0 0 1-1.67.45H2.7A2.7 2.7 0 0 0 0 5.25v3.33a2.72 2.72 0 0 0 2.71 2.7h.37v2.16a2.07 2.07 0 0 0 2.06 2.06 2.06 2.06 0 0 0 2.06-2.06v-2c.222.073.436.166.64.28l2.31 1.35c.26.153.558.232.86.23a1.65 1.65 0 0 0 .85-.23c.528-.3.853-.862.85-1.47V10H13a3.05 3.05 0 0 0 0-6.1v-.05zM5.15 14.1a.66.66 0 0 1-.46-.19.65.65 0 0 1-.2-.47v-2.16h1.3v2.17a.66.66 0 0 1-.64.65zm6-2.24a.29.29 0 0 1-.3 0l-2.32-1.35a4.72 4.72 0 0 0-1.9-.61H2.71A1.32 1.32 0 0 1 1.4 8.58V5.25a1.26 1.26 0 0 1 .38-.92A1.28 1.28 0 0 1 2.7 4h3.45a4.57 4.57 0 0 0 2.37-.65L10.84 2a.29.29 0 0 1 .3 0 .3.3 0 0 1 .15.26v9.4a.28.28 0 0 1-.14.2zM13 8.55v-3.3a1.65 1.65 0 0 1 0 3.3z" fill="currentColor" fill-rule="evenodd"/></svg>
